X: 181
T: SLIDE: Echoes of Killarney (Amaj)
T: Art O'Keeffe's No. 2 / Mo Shéamuisín
C: C: Trad.; S: Séamus Begley
C: Set Leaders: Anton, Sophie
Z: Anton Zille ed.; Bregolas at The Session
N: https://thesession.org/members/26966/sets/73135
R: Slide
M: 12/8
L: 1/8
Q: 3/8=130
K: Amaj
|:A2E A2B c2e agf|e2c cBc e2c BcB|
A2E A2B c2e faf|1 e2c BcB A2B c2B:|2 e2c BcB A3 A3||
|:a2g f2e f2g a2f|e2c cBc e2c cBc|
a2g f2e f2g a2f|1 e2c BcB A3 A2a:|2 e2c BcB A2B c2B||

